Adwaita++-Dark/actions/16/view-compact.svg

<svg height="16" width="16" xmlns="http://www.w3.org/2000/svg">
  <g fill="#e6ddff">
    <path d="m4.25 4h1.5c.1385 0 .25.1115.25.25v1.5c0 .1385-.1115.25-.25.25h-1.5c-.1385 0-.25-.1115-.25-.25v-1.5c0-.1385.1115-.25.25-.25z"/>
    <path d="m7.25 4h1.5c.1385 0 .25.1115.25.25v1.5c0 .1385-.1115.25-.25.25h-1.5c-.1385 0-.25-.1115-.25-.25v-1.5c0-.1385.1115-.25.25-.25z"/>
    <path d="m10.25 4h1.5c.139 0 .25.1115.25.25v1.5c0 .1385-.111.25-.25.25h-1.5c-.138 0-.25-.1115-.25-.25v-1.5c0-.1385.112-.25.25-.25z"/>
    <path d="m4.25 7h1.5c.1385 0 .25.1115.25.25v1.5c0 .1385-.1115.25-.25.25h-1.5c-.1385 0-.25-.1115-.25-.25v-1.5c0-.1385.1115-.25.25-.25z"/>
    <path d="m7.25 7h1.5c.1385 0 .25.1115.25.25v1.5c0 .1385-.1115.25-.25.25h-1.5c-.1385 0-.25-.1115-.25-.25v-1.5c0-.1385.1115-.25.25-.25z"/>
    <path d="m10.25 7h1.5c.139 0 .25.1115.25.25v1.5c0 .1385-.111.25-.25.25h-1.5c-.138 0-.25-.1115-.25-.25v-1.5c0-.1385.112-.25.25-.25z"/>
    <path d="m4.25 10h1.5c.1385 0 .25.112.25.25v1.5c0 .139-.1115.25-.25.25h-1.5c-.1385 0-.25-.111-.25-.25v-1.5c0-.138.1115-.25.25-.25z"/>
    <path d="m7.25 10h1.5c.1385 0 .25.112.25.25v1.5c0 .139-.1115.25-.25.25h-1.5c-.1385 0-.25-.111-.25-.25v-1.5c0-.138.1115-.25.25-.25z"/>
    <path d="m10.25 10h1.5c.139 0 .25.112.25.25v1.5c0 .139-.111.25-.25.25h-1.5c-.138 0-.25-.111-.25-.25v-1.5c0-.138.112-.25.25-.25z"/>
  </g>
</svg>

<svg xmlns="http://www.w3.org/2000/svg" width="16" height="16" version="1.1">
 <path style="fill:#E6DDFF" d="M 4.25,4 H 5.75 C 5.8885,4 6,4.1115 6,4.25 V 5.75 C 6,5.8885 5.8885,6 5.75,6 H 4.25 C 4.1115,6 4,5.8885 4,5.75 V 4.25 C 4,4.1115 4.1115,4 4.25,4 Z"/>
 <path style="fill:#E6DDFF" d="M 7.25,4 H 8.75 C 8.8885,4 9,4.1115 9,4.25 V 5.75 C 9,5.8885 8.8885,6 8.75,6 H 7.25 C 7.1115,6 7,5.8885 7,5.75 V 4.25 C 7,4.1115 7.1115,4 7.25,4 Z"/>
 <path style="fill:#E6DDFF" d="M 10.25,4 H 11.75 C 11.889,4 12,4.1115 12,4.25 V 5.75 C 12,5.8885 11.889,6 11.75,6 H 10.25 C 10.112,6 10,5.8885 10,5.75 V 4.25 C 10,4.1115 10.112,4 10.25,4 Z"/>
 <path style="fill:#E6DDFF" d="M 4.25,7 H 5.75 C 5.8885,7 6,7.1115 6,7.25 V 8.75 C 6,8.8885 5.8885,9 5.75,9 H 4.25 C 4.1115,9 4,8.8885 4,8.75 V 7.25 C 4,7.1115 4.1115,7 4.25,7 Z"/>
 <path style="fill:#E6DDFF" d="M 7.25,7 H 8.75 C 8.8885,7 9,7.1115 9,7.25 V 8.75 C 9,8.8885 8.8885,9 8.75,9 H 7.25 C 7.1115,9 7,8.8885 7,8.75 V 7.25 C 7,7.1115 7.1115,7 7.25,7 Z"/>
 <path style="fill:#E6DDFF" d="M 10.25,7 H 11.75 C 11.889,7 12,7.1115 12,7.25 V 8.75 C 12,8.8885 11.889,9 11.75,9 H 10.25 C 10.112,9 10,8.8885 10,8.75 V 7.25 C 10,7.1115 10.112,7 10.25,7 Z"/>
 <path style="fill:#E6DDFF" d="M 4.25,10 H 5.75 C 5.8885,10 6,10.112 6,10.25 V 11.75 C 6,11.889 5.8885,12 5.75,12 H 4.25 C 4.1115,12 4,11.889 4,11.75 V 10.25 C 4,10.112 4.1115,10 4.25,10 Z"/>
 <path style="fill:#E6DDFF" d="M 7.25,10 H 8.75 C 8.8885,10 9,10.112 9,10.25 V 11.75 C 9,11.889 8.8885,12 8.75,12 H 7.25 C 7.1115,12 7,11.889 7,11.75 V 10.25 C 7,10.112 7.1115,10 7.25,10 Z"/>
 <path style="fill:#E6DDFF" d="M 10.25,10 H 11.75 C 11.889,10 12,10.112 12,10.25 V 11.75 C 12,11.889 11.889,12 11.75,12 H 10.25 C 10.112,12 10,11.889 10,11.75 V 10.25 C 10,10.112 10.112,10 10.25,10 Z"/>
</svg>
